X:1
T: The Chorus Reel
C:
R:Reel
Q: 232
K:D
M:4/4
L:1/8
dB|AD ((3DDD) AG FG|AD ((3DDD) D2 dB|AD ((3DDD) AG FG|((3EFE) =cA G2 dB|
AD ((3DDD) AG FG|AD ((3DDD) D2 dB|AD ((3DDD) AG FG|((3EFE) =cA G2 FE|
Dd dB AB AF|Dd dB A2 FE|Dd dB AB AF|((3EFE) =cA G2 FE|
Dd dB AB AF|Dd dB A2 Bc|dB cA BG AF|((3EFE) =cA G2 eg|
((3fgf) dg ((3fgf) dg|((3fgf) df gb ag|((3fgf) dg ((3fgf) df|ed ef gf ge|
((3fgf) dg ((3fgf) dg|((3fgf) df gb ag|((3fgf) dg ((3fgf) df|ed ef g2 g2|
fd ec dc dB|AF DF A2 Bc|dB cA BG AF|((3EFE) =cA G2 g2|
fd ec dc dB|AF DF A2 Bc|dB cA BG AF|((3EFE) =cA G2||
